X: 36669
T: Shaskeen, The
R: reel
M: 4/4
K: Gmajor
|:DG G2 AGAB|cded cAAc|BG G2 AF F2|GBAG FD D2|
DG G2 AGAB|cded cAAg|f3e fdcA|1 GBAF G3F:|2 GBAF G3B||
|:dggf g2fg|abag fddc|BG G2 AF F2|GBAG FD D2|
dggf g2fg|abag fddc|BG G2 AF F2|GBAF G3B|
dggf g2fg|abag fddc|BG G2 AF F2|GBAG FD D2|
BG G2 cA A2|d^cde dcAg|f3e fdcA|BGAF G3F||

